X:148
T:Duke of Cumberland’s Reel, The TS.148
M:C
L:1/8
Q:1/2=100
S:Thomas Sands’ MS,1810,Lincolnshire
R:reel
N:Nearly identical to TS.226
O:England;Lincolnshire
Z:vmp.Ruairidh Greig, 2011
K:Bb
B2bg fdcB|AFcF dFcF|B2bg fdcB|FAce dBB2:|
BGFE DEFD|ECCG cGGA|BGFE DEFD|B,BAc dBB2:|]

